X:1
T:Reel TS.206
T:Reel TS.206
T:In different hand B
C:In different hand B
L:1/8
Q:1/2=60
M:2/4
K:F
V:1 treble 
V:1
 d | c>A G>F | f>ga>g | (f<d) c>A | dGGd | (c<A) G>F | f>ga>g | (f<d) c>A | F2"^cr. in ms" F :| c | %10
 (d/e/f) ec | dfcA | (B/c/d) cA | dGGc | (d/e/)f ec | bgaf | (d/e/)f cB | AFFc | (d/e/)f ec | %19
 bgaf | (d/e/)f cB | dGGA | F>GFA | cbag | (f>d) c>A | F2 F |] %26

